!!!COM: Music21
!!!OTL: reel_Chùir-I-Glùin-Air-A-Bhodaich
!!!OMV: reel_Chùir-I-Glùin-Air-A-Bhodaich
**kern
*clefG2
*k[f#]
*M4/4
=1
8aL
8bJ
4dd
8bL
8ddJ
4ee
=
8aL
8bJ
4dd
8eeL
8ddJ
8bL
8gJ
=
8aL
8bJ
4dd
8bL
8ddJ
4ee
=
8ddL
8bJ
4b
8aL
8bJ
8aL
8gJ
=||
*M4/4
8aL
8bJ
4dd
8bL
8ddJ
4ee
!!linebreak:original
=
8aL
8bJ
4dd
8eeL
8ddJ
8bL
8gJ
=
8aL
8bJ
4dd
8bL
8ddJ
4ee
=
8ddL
8bJ
4b
8aL
8bJ
8aL
8gJ
=||
8eeL
8ff#J
4gg
8ff#L
8ggJ
4aa
=
8eeL
8ff#J
4gg
8aaL
8ggJ
8ff#L
8ddJ
=
8eeL
8ff#J
4gg
8ff#L
8ggJ
4aa
!!linebreak:original
=
8ddL
8bJ
4b
8aL
8bJ
8aL
8gJ
=
8eeL
8ff#J
4gg
8ff#L
8ggJ
4aa
=
8eeL
8ff#J
4gg
8aaL
8ggJ
8ff#L
8ddJ
=
8eeL
8ff#J
8ggL
8eeJ
8ff#L
8ddJ
4ee
=
8ddL
8bJ
4b
8aL
8bJ
8aL
8gJ
=||
*-
